svg/fluentui-system-icons/ic_fluent_table_simple_checkmark_24_regular.svg

<svg width="24" height="24" viewBox="0 0 24 24" fill="none" xmlns="http://www.w3.org/2000/svg">
<path d="M6.25 3C4.45507 3 3 4.45507 3 6.25V17.75C3 19.5449 4.45507 21 6.25 21H17.75C19.5449 21 21 19.5449 21 17.75V6.25C21 4.45507 19.5449 3 17.75 3H6.25ZM4.5 6.25C4.5 5.2835 5.2835 4.5 6.25 4.5H11.25V11.25H4.5V6.25ZM12.75 11.25V4.5H17.75C18.7165 4.5 19.5 5.2835 19.5 6.25V11.25H12.75ZM4.5 12.75H11.25V19.5H6.25C5.2835 19.5 4.5 18.7165 4.5 17.75V12.75ZM18.2832 14.7167C18.5761 15.0096 18.5761 15.4845 18.2832 15.7774L16.2803 17.7803C15.9874 18.0732 15.5126 18.0732 15.2197 17.7803L14.2197 16.7803C13.9268 16.4874 13.9268 16.0125 14.2197 15.7197C14.5126 15.4268 14.9874 15.4268 15.2803 15.7197L15.75 16.1893L17.2226 14.7167C17.5155 14.4238 17.9903 14.4238 18.2832 14.7167Z" fill="#212121"/>
</svg>

<svg xmlns="http://www.w3.org/2000/svg" width="24" height="24"><path d="M6.25 3A3.25 3.25 0 0 0 3 6.25v11.5A3.25 3.25 0 0 0 6.25 21h11.5A3.25 3.25 0 0 0 21 17.75V6.25A3.25 3.25 0 0 0 17.75 3H6.25ZM4.5 6.25c0-.966.784-1.75 1.75-1.75h5v6.75H4.5v-5Zm8.25 5V4.5h5c.966 0 1.75.784 1.75 1.75v5h-6.75Zm-8.25 1.5h6.75v6.75h-5a1.75 1.75 0 0 1-1.75-1.75v-5Zm13.783 1.967a.75.75 0 0 1 0 1.06L16.28 17.78a.75.75 0 0 1-1.06 0l-1-1a.75.75 0 1 1 1.06-1.06l.47.47 1.473-1.473a.75.75 0 0 1 1.06 0Z"/></svg>
